**kern	**kern
*staff2	*staff1
*clefF4	*clefG2
*k[b-e-a-]	*k[b-e-a-]
*M2/4	*M2/4
*E-:	*E-:
=-	=-
*^	*
4B-	(8DL	(16b-LL
.	.	16f
.	8BB-J)	16e
.	.	16fJJ
8r	8r	16eLL
.	.	16f
8B-	8D	16g
.	.	16a-JJ
=32	=32	=32
4B-	(8E-L	16gLL
.	.	16d
.	8BB-J)	16e-
.	.	16fJJ
8r	8r	16f#LL
.	.	16g
8B-	8E-	16a-
.	.	16aJJ
=33	=33	=33
4B-	(8DL	16b-LL
.	.	16f
.	8BB-J)	16e
.	.	16fJJ
8r	8r	16eLL
.	.	16f
8B-	8D	16g
.	.	16a-JJ
=34	=34	=34
4B-	4E-	16gLL
.	.	16a-
.	.	16a
.	.	16b-JJ
4r	4r	16bLL
.	.	16cc
.	.	16cc#
.	.	16ddJJ)
=35	=35	=35
8r	2B-	(16ee-LL
.	.	16dd
4f 4a-	.	16cc#
.	.	16ddJJ)
.	.	(16ccLL
.	.	16b-
8f	.	16a
.	.	16b-JJ)
=36	=36	=36
8r	2A-	(16ee-LL
.	.	16dd
4B- 4f	.	16cc#
.	.	16ddJJ)
.	.	(16ccLL
.	.	16b-
8B- 8f	.	16a
.	.	16b-JJ)
*v	*v	*
=37	=37
8r	(16ee-LL
.	16ff
8G 8e-	16gg)
.	16b-'JJ
8r	(16ccLL
.	16dd
8A- 8e-	16ee-)
.	16a-'JJ
=38	=38
8r	(16gLL
.	16a-
8BB- 8E- 8G	16b-)
.	16e-'JJ
8r	(16fLL
.	16g
8BB- 8F 8A-	16a-)
.	16d'JJ
=39	=39
4E- 4G	(16e-LL
.	16g
.	16a-
.	16aJJ
4r	16b-LL
.	16b
.	16cc
.	16ddJJ)
=	=
*-	*-
